!!!OTL: 1264. Uraltes Kirchweihlied.
!!!ARE: Europa, Mitteleuropa, Deutschland, Hildburghausen
!!!SCT: E1264
!!!TXL: @@DE
!!!YEM: Copyright 1995, estate of Helmut Schaffrath.
**kern	**text
*ICvox	*
*M2/4	*
*k[f#]	*
*G:	*
!LO:TX:a:t=Solo.	!
!LO:TX:a:t=Aus dem Hilburghauſenſchen.	!
{8d	So
=1	=1
8.g	tret'n
16a	wir
8b	nun
8cc	her-
=2	=2
4dd	-fü-
8b	-re,
8r}	.
=3	=3
!LO:TX:a:t=Chor.	!
{8dd	[Aus
8dd	den
8dd	Re-
8dd	-ben
=4	=4
8dd	wächſt
16ccL	der
16bJ	.
8a}	Wein]
!LO:TX:a:t=Solo.	!
{16aL	vor
16bJ	.
=5	=5
8cc	die-
8cc	-ſes
8b	Bau-
8b	-ers
=6	=6
4a	Thü-
8g	-re.
8r}	.
=7	=7
!LO:TX:a:t=Chor.	!
{8.g	[Aus
16a	den
8b	Re-
8a	-ben
=8	=8
16gL	wächſt
16aJ	.
16aL	der
16bJ	.
8dd}	Wein,
{8dd	ſteh
=9	=9
8ee	auf,
8dd	du
8cc	wack-
8b	-res
=10	=10
8a	Mä-
8a	-de-
8g}	-lein!]
==	==
!!!AGN: Ansinge -, Brauchtums - Lied, Kirchen - Fest, Kirmes
!!!ONB: ESAC (Essen Associative Code) Database: ERK3
!!!AMT: simple duple
!!!AIN: vox
!!!EED: Helmut Schaffrath
!!!EEV: 1.0
!!!GTL: Ansingelieder an Volks- und Kirchenfesten.
!!!URL-scan: https://rosdok.uni-rostock.de/mcrviewer/recordIdentifier/rosdok_ppn745177999/iview2/phys_0160.iview2?x=-218.20720142199457&y=1035.4775014009792&scale=0.5870222003877485&rotation=0&layout=singlePageLayout
!!!ENC: Anna Maria Matuszewska
!!!EEV: 2024/12/27
*-	*-
